svg/24/logo-notion.svg

<svg width="24" height="24" viewBox="0 0 24 24" fill="currentColor" xmlns="http://www.w3.org/2000/svg"><path fill-rule="evenodd" clip-rule="evenodd" d="M14.5375 2.63984L4.13156 3.40844C3.29206 3.48103 3 4.0296 3 4.68706V16.0948C3 16.6069 3.18185 17.0451 3.6206 17.6307L6.0667 20.8113C6.46858 21.3234 6.83398 21.4333 7.60127 21.3968L19.6855 20.6652C20.7072 20.5924 21 20.1167 21 19.3125V6.47871C21 6.0631 20.8358 5.9433 20.3525 5.58862L16.9479 3.18822C16.1443 2.60392 15.8157 2.53001 14.5375 2.63965V2.63984ZM7.87452 6.26865C6.88777 6.33503 6.66398 6.35008 6.10356 5.89441L4.67881 4.76116C4.53401 4.61447 4.60679 4.43149 4.97162 4.395L14.9751 3.66401C15.8152 3.59067 16.2526 3.88348 16.5811 4.13924L18.2968 5.38232C18.3702 5.41937 18.5526 5.63808 18.3331 5.63808L8.0024 6.26L7.87452 6.26865ZM6.72416 19.2029V8.30797C6.72416 7.83218 6.87028 7.61272 7.30771 7.57586L19.1732 6.88116C19.5756 6.84487 19.7575 7.10063 19.7575 7.57567V18.398C19.7575 18.8738 19.6841 19.2762 19.0272 19.3125L7.67273 19.9707C7.01584 20.007 6.72435 19.7883 6.72435 19.2029H6.72416ZM17.9325 8.89209C18.0053 9.2212 17.9325 9.5503 17.6034 9.58791L17.0562 9.69642V17.7403C16.581 17.9961 16.1435 18.1422 15.7779 18.1422C15.1936 18.1422 15.0477 17.9592 14.6101 17.4112L11.0313 11.7807V17.2282L12.1634 17.4846C12.1634 17.4846 12.1634 18.1428 11.25 18.1428L8.73189 18.2889C8.65855 18.1422 8.73189 17.7768 8.98709 17.704L9.64473 17.5216V10.3189L8.73208 10.245C8.65873 9.91589 8.84115 9.44066 9.35268 9.4038L12.0545 9.22195L15.7781 14.9253V9.87959L14.829 9.77052C14.7556 9.36751 15.0477 9.0747 15.4125 9.03897L17.9325 8.89209Z"/></svg>

<svg xmlns="http://www.w3.org/2000/svg" width="24" height="24" fill="currentColor" viewBox="0 0 24 24">
  <path fill-rule="evenodd" d="m14.537 2.64-10.404.77C3.292 3.48 3 4.029 3 4.687v11.408c0 .512.182.95.62 1.536l2.447 3.18c.402.513.767.622 1.534.586l12.085-.731c1.021-.073 1.314-.55 1.314-1.353V6.479c0-.416-.164-.535-.648-.89l-3.404-2.4c-.804-.585-1.132-.659-2.41-.55v.001ZM7.875 6.27c-.987.066-1.211.081-1.771-.374L4.679 4.76c-.145-.146-.072-.33.293-.366l10.003-.73c.84-.074 1.278.219 1.606.474l1.716 1.244c.073.037.256.255.036.255l-10.33.622-.128.009Zm-1.15 12.934V8.308c0-.476.145-.695.583-.732l11.865-.695c.403-.036.585.22.585.695v10.822c0 .476-.074.878-.73.915l-11.355.658c-.657.036-.949-.183-.949-.768Zm11.207-10.31c.073.328 0 .658-.329.695l-.547.109v8.044c-.475.255-.913.401-1.278.401-.584 0-.73-.183-1.168-.73l-3.579-5.631v5.447l1.132.257s0 .658-.913.658l-2.518.146c-.073-.147 0-.512.255-.585l.658-.182V10.32l-.913-.074c-.073-.329.11-.804.62-.84l2.703-.183 3.723 5.704V9.88l-.949-.11c-.073-.402.219-.695.583-.73l2.52-.148Z" clip-rule="evenodd"/>
</svg>
